X: 5
T:Y Delyn Newydd
T:The New Harp
M:2/4
L:1/8
Q:320
C:Trad
S:Cat's Claw
R:Polka
A:Wales
Z:brian_martin12345@yahoo.com
K:G
B/A/G/A/ Bd|dcc2|c/B/A/B/ ce|edd2|B/A/G/A/ Bd|dcc2|c/B/A/B/ cA|BGG2:||!
gf ed|gf ed|gf ed|cBA2|fe d2|fe d2|fe dc|BAG2:||
